demo/point.svg

<?xml version="1.0" encoding="utf-8"?><svg xmlns="http://www.w3.org/2000/svg" viewBox="0 0 360.779 358.125"><ellipse cx="179.282" cy="178.428" rx="165.671" ry="164.711" style="stroke-width:25px;fill:rgba(170,170,170,0);stroke:rgb(230,138,46)"/><path d="M392.246 302.235H292.051v-25.586h100.195Zm0-43.36H292.051v-25.586h100.195Z" style="fill:rgb(230,138,46);white-space:pre" transform="matrix(.3918 0 0 1 160.377 -86.151)"/><path d="M392.246 302.235H292.051v-25.586h100.195Zm0-43.36H292.051v-25.586h100.195Z" style="white-space:pre;fill:rgb(230,138,46)" transform="matrix(.3918 0 0 1 -64.956 -81.542)"/><path d="M185.579 266.711h-54.687q-11.84 0-16.907-5.31-5.066-5.31-5.066-16.907V109.973q0-11.84 5.188-17.029 5.189-5.188 16.785-5.188l42.233.188c8.546 0 13.135.138 37.875.133s36.783 2.792 37.12 16.084c.394 15.531-17.552 15.204-35.695 15.204-6.716 0-24.648-.387-37.832-.387h-29.419v42.264h33.203c26.512 1.154 31.462 1.081 45.303 5.38 21.451 7.005 33.921 27.417 33.921 49.064q0 15.014-7.691 27.038t-20.752 17.761q-8.178 3.418-18.798 4.822t-24.781 1.404m-2.685-79.468h-37.72v52.246h38.94q36.744 0 36.744-26.489 0-13.55-9.522-19.653-9.52-6.104-28.442-6.104" style="paint-order:fill;stroke-linecap:round;stroke-miterlimit:1;white-space:pre;fill:rgb(230,138,46)"/><path d="M219.007 228.84H164.32c-7.969-.011-13.785-1.859-17.269-5.465-3.435-3.641-5.193-9.449-5.204-17.252V71.602c.011-7.967 1.814-13.82 5.334-17.383 3.562-3.521 9.334-5.323 17.139-5.334h57.983c8.564.001 16.011.532 22.3 1.594 6.31 1.065 12.011 3.134 17.019 6.167 4.266 2.547 8.072 5.796 11.356 9.69a43 43 0 0 1 7.534 12.967c1.652 4.589 10.903 13.876 10.903 19.261 0 9.087-4.437 15.974-11.048 21.509-6.599 5.525-14.696 9.469-23.256 13.459 11.219 3.761 19.556 8.961 25.488 16.308 5.935 7.353 8.93 16.574 8.93 27.475 0 10.077-2.612 19.225-7.77 27.307-5.174 8.072-12.21 14.089-20.98 17.953-5.486 2.291-11.816 3.917-18.925 4.857-7.099.938-15.393 1.408-24.847 1.408m24.715-2.4c7.051-.932 13.25-2.519 18.667-4.786 8.644-3.786 15.45-9.61 20.528-17.57 5.098-7.95 7.612-16.828 7.612-26.769 0-10.746-2.885-19.633-8.709-26.847-5.828-7.22-14.518-12.661-26.222-16.379l-1.225-.389 1.167-.541c8.947-4.148 17.678-8.405 24.186-13.853 6.496-5.439 10.689-11.926 10.689-20.742 0-5.033-9.075-14.148-10.843-18.917-1.689-4.64-4.127-8.837-7.358-12.667-3.226-3.836-6.906-6.977-11.104-9.476-4.919-2.989-10.451-4.988-16.673-6.039-6.243-1.054-13.606-1.581-22.134-1.58H164.32c-7.657-.011-13.075 1.645-16.431 5.042-3.396 3.355-5.053 8.854-5.042 16.675v134.521c-.011 7.659 1.609 13.123 4.928 16.562 3.272 3.474 8.726 5.166 16.545 5.155h54.687c9.426 0 17.654-.466 24.715-1.4m1.312-71.885c6.438 4.171 9.752 10.932 9.752 20.074 0 8.934-3.17 15.786-9.394 20.272-6.2 4.471-15.544 6.71-27.85 6.717h-39.44v-53.246h38.22c12.666.006 22.282 2.08 28.712 6.183m-28.712-5.183h-37.22v51.246h38.44c12.19.007 21.218-2.169 27.266-6.528 6.024-4.343 8.978-10.736 8.978-19.461 0-8.924-3.034-15.265-9.292-19.232-6.264-4.035-15.61-6.031-28.172-6.025m-8.301-73.265c13.221.003 23.132 1.511 29.629 4.501 6.544 3.08 9.933 9.309 9.933 18.46 0 4.295-1.059 8.242-3.116 11.721-2.661 4.871-6.557 8.235-11.563 9.991-4.975 1.721-12.035 2.589-21.099 2.591h-33.703V76.107Zm-28.919 1v45.264h32.703c9.004.002 15.9-.838 20.771-2.535 4.842-1.662 8.469-4.801 11.016-9.532 2.008-3.355 2.991-7.069 2.991-11.236 0-8.915-3.039-14.69-9.353-17.552-6.361-2.95-16.062-4.412-29.209-4.409Z" style="fill:none"/><path d="M219.007 228.84H164.32c-7.969-.011-13.785-1.859-17.269-5.465-3.435-3.641-5.193-9.449-5.204-17.252V71.602c.011-7.967 1.814-13.82 5.334-17.383 3.562-3.521 9.334-5.323 17.139-5.334h57.983c8.564.001 16.011.532 22.3 1.594 6.31 1.065 12.011 3.134 17.019 6.167 4.266 2.547 8.072 5.796 11.356 9.69a43 43 0 0 1 7.534 12.967c1.652 4.589 10.903 13.876 10.903 19.261 0 9.087-4.437 15.974-11.048 21.509-6.599 5.525-14.696 9.469-23.256 13.459 11.219 3.761 19.556 8.961 25.488 16.308 5.935 7.353 8.93 16.574 8.93 27.475 0 10.077-2.612 19.225-7.77 27.307-5.174 8.072-12.21 14.089-20.98 17.953-5.486 2.291-11.816 3.917-18.925 4.857-7.099.938-15.393 1.408-24.847 1.408m24.715-2.4c7.051-.932 13.25-2.519 18.667-4.786 8.644-3.786 15.45-9.61 20.528-17.57 5.098-7.95 7.612-16.828 7.612-26.769 0-10.746-2.885-19.633-8.709-26.847-5.828-7.22-14.518-12.661-26.222-16.379l-1.225-.389 1.167-.541c8.947-4.148 17.678-8.405 24.186-13.853 6.496-5.439 10.689-11.926 10.689-20.742 0-5.033-9.075-14.148-10.843-18.917-1.689-4.64-4.127-8.837-7.358-12.667-3.226-3.836-6.906-6.977-11.104-9.476-4.919-2.989-10.451-4.988-16.673-6.039-6.243-1.054-13.606-1.581-22.134-1.58H164.32c-7.657-.011-13.075 1.645-16.431 5.042-3.396 3.355-5.053 8.854-5.042 16.675v134.521c-.011 7.659 1.609 13.123 4.928 16.562 3.272 3.474 8.726 5.166 16.545 5.155h54.687c9.426 0 17.654-.466 24.715-1.4m1.312-71.885c6.438 4.171 9.752 10.932 9.752 20.074 0 8.934-3.17 15.786-9.394 20.272-6.2 4.471-15.544 6.71-27.85 6.717h-39.44v-53.246h38.22c12.666.006 22.282 2.08 28.712 6.183m-28.712-5.183h-37.22v51.246h38.44c12.19.007 21.218-2.169 27.266-6.528 6.024-4.343 8.978-10.736 8.978-19.461 0-8.924-3.034-15.265-9.292-19.232-6.264-4.035-15.61-6.031-28.172-6.025m-8.301-73.265c13.221.003 23.132 1.511 29.629 4.501 6.544 3.08 9.933 9.309 9.933 18.46 0 4.295-1.059 8.242-3.116 11.721-2.661 4.871-6.557 8.235-11.563 9.991-4.975 1.721-12.035 2.589-21.099 2.591h-33.703V76.107Zm-28.919 1v45.264h32.703c9.004.002 15.9-.838 20.771-2.535 4.842-1.662 8.469-4.801 11.016-9.532 2.008-3.355 2.991-7.069 2.991-11.236 0-8.915-3.039-14.69-9.353-17.552-6.361-2.95-16.062-4.412-29.209-4.409Z" style="fill:none"/><path d="M219.007 228.84H164.32c-7.969-.011-13.785-1.859-17.269-5.465-3.435-3.641-5.193-9.449-5.204-17.252V71.602c.011-7.967 1.814-13.82 5.334-17.383 3.562-3.521 9.334-5.323 17.139-5.334h57.983c8.564.001 16.011.532 22.3 1.594 6.31 1.065 12.011 3.134 17.019 6.167 4.266 2.547 8.072 5.796 11.356 9.69a43 43 0 0 1 7.534 12.967c1.652 4.589 10.903 13.876 10.903 19.261 0 9.087-4.437 15.974-11.048 21.509-6.599 5.525-14.696 9.469-23.256 13.459 11.219 3.761 19.556 8.961 25.488 16.308 5.935 7.353 8.93 16.574 8.93 27.475 0 10.077-2.612 19.225-7.77 27.307-5.174 8.072-12.21 14.089-20.98 17.953-5.486 2.291-11.816 3.917-18.925 4.857-7.099.938-15.393 1.408-24.847 1.408m24.715-2.4c7.051-.932 13.25-2.519 18.667-4.786 8.644-3.786 15.45-9.61 20.528-17.57 5.098-7.95 7.612-16.828 7.612-26.769 0-10.746-2.885-19.633-8.709-26.847-5.828-7.22-14.518-12.661-26.222-16.379l-1.225-.389 1.167-.541c8.947-4.148 17.678-8.405 24.186-13.853 6.496-5.439 10.689-11.926 10.689-20.742 0-5.033-9.075-14.148-10.843-18.917-1.689-4.64-4.127-8.837-7.358-12.667-3.226-3.836-6.906-6.977-11.104-9.476-4.919-2.989-10.451-4.988-16.673-6.039-6.243-1.054-13.606-1.581-22.134-1.58H164.32c-7.657-.011-13.075 1.645-16.431 5.042-3.396 3.355-5.053 8.854-5.042 16.675v134.521c-.011 7.659 1.609 13.123 4.928 16.562 3.272 3.474 8.726 5.166 16.545 5.155h54.687c9.426 0 17.654-.466 24.715-1.4m1.312-71.885c6.438 4.171 9.752 10.932 9.752 20.074 0 8.934-3.17 15.786-9.394 20.272-6.2 4.471-15.544 6.71-27.85 6.717h-39.44v-53.246h38.22c12.666.006 22.282 2.08 28.712 6.183m-28.712-5.183h-37.22v51.246h38.44c12.19.007 21.218-2.169 27.266-6.528 6.024-4.343 8.978-10.736 8.978-19.461 0-8.924-3.034-15.265-9.292-19.232-6.264-4.035-15.61-6.031-28.172-6.025m-8.301-73.265c13.221.003 23.132 1.511 29.629 4.501 6.544 3.08 9.933 9.309 9.933 18.46 0 4.295-1.059 8.242-3.116 11.721-2.661 4.871-6.557 8.235-11.563 9.991-4.975 1.721-12.035 2.589-21.099 2.591h-33.703V76.107Zm-28.919 1v45.264h32.703c9.004.002 15.9-.838 20.771-2.535 4.842-1.662 8.469-4.801 11.016-9.532 2.008-3.355 2.991-7.069 2.991-11.236 0-8.915-3.039-14.69-9.353-17.552-6.361-2.95-16.062-4.412-29.209-4.409Z" style="fill:none"/></svg>

<?xml version="1.0" encoding="utf-8"?>
<svg viewBox="0 0 360.779 358.125" xmlns="http://www.w3.org/2000/svg">
  <ellipse style="stroke-width: 25px; fill: rgba(170, 170, 170, 0); stroke: rgb(230, 138, 46);" cx="179.282" cy="178.428" rx="165.671" ry="164.711"/>
  <path d="M 392.246 302.235 L 292.051 302.235 L 292.051 276.649 L 392.246 276.649 Z M 392.246 258.875 L 292.051 258.875 L 292.051 233.289 L 392.246 233.289 Z" transform="matrix(0.391794, 0, 0, 1, 160.377246, -86.151087)" style="fill: rgb(230, 138, 46); white-space: pre;"/>
  <path d="M 392.246 302.235 L 292.051 302.235 L 292.051 276.649 L 392.246 276.649 Z M 392.246 258.875 L 292.051 258.875 L 292.051 233.289 L 392.246 233.289 Z" transform="matrix(0.391794, 0, 0, 1, -64.955789, -81.541727)" style="white-space: pre; fill: rgb(230, 138, 46);"/>
  <path d="M 185.579 266.711 L 130.892 266.711 C 122.998 266.711 117.363 264.941 113.985 261.401 C 110.608 257.861 108.919 252.225 108.919 244.494 L 108.919 109.973 C 108.919 102.079 110.649 96.403 114.107 92.944 C 117.566 89.485 123.161 87.756 130.892 87.756 L 173.125 87.944 C 181.671 87.944 186.26 88.082 211 88.077 C 235.74 88.072 247.783 90.869 248.12 104.161 C 248.514 119.692 230.568 119.365 212.425 119.365 C 205.709 119.365 187.777 118.978 174.593 118.978 L 145.174 118.978 L 145.174 161.242 L 178.377 161.242 C 204.889 162.396 209.839 162.323 223.68 166.622 C 245.131 173.627 257.601 194.039 257.601 215.686 C 257.601 225.695 255.038 234.708 249.91 242.724 C 244.784 250.74 237.866 256.66 229.158 260.485 C 223.706 262.764 217.44 264.371 210.36 265.307 C 203.28 266.243 195.019 266.711 185.579 266.711 Z M 182.894 187.243 L 145.174 187.243 L 145.174 239.489 L 184.114 239.489 C 208.61 239.489 220.858 230.659 220.858 213 C 220.858 203.967 217.684 197.416 211.336 193.347 C 204.989 189.278 195.508 187.243 182.894 187.243 Z" style="paint-order: fill; stroke-linecap: round; stroke-miterlimit: 1; white-space: pre; fill: rgb(230, 138, 46);"/>
  <path d="M 219.007 228.84 L 164.32 228.84 C 156.351 228.829 150.535 226.981 147.051 223.375 C 143.616 219.734 141.858 213.926 141.847 206.123 L 141.847 71.602 C 141.858 63.635 143.661 57.782 147.181 54.219 C 150.743 50.698 156.515 48.896 164.32 48.885 L 222.303 48.885 C 230.867 48.886 238.314 49.417 244.603 50.479 C 250.913 51.544 256.614 53.613 261.622 56.646 C 265.888 59.193 269.694 62.442 272.978 66.336 C 276.259 70.236 278.785 74.585 280.512 79.303 C 282.164 83.892 291.415 93.179 291.415 98.564 C 291.415 107.651 286.978 114.538 280.367 120.073 C 273.768 125.598 265.671 129.542 257.111 133.532 C 268.33 137.293 276.667 142.493 282.599 149.84 C 288.534 157.193 291.529 166.414 291.529 177.315 C 291.529 187.392 288.917 196.54 283.759 204.622 C 278.585 212.694 271.549 218.711 262.779 222.575 C 257.293 224.866 250.963 226.492 243.854 227.432 C 236.755 228.37 228.461 228.84 219.007 228.84 Z M 243.722 226.44 C 250.773 225.508 256.972 223.921 262.389 221.654 C 271.033 217.868 277.839 212.044 282.917 204.084 C 288.015 196.134 290.529 187.256 290.529 177.315 C 290.529 166.569 287.644 157.682 281.82 150.468 C 275.992 143.248 267.302 137.807 255.598 134.089 L 254.373 133.7 L 255.54 133.159 C 264.487 129.011 273.218 124.754 279.726 119.306 C 286.222 113.867 290.415 107.38 290.415 98.564 C 290.415 93.531 281.34 84.416 279.572 79.647 C 277.883 75.007 275.445 70.81 272.214 66.98 C 268.988 63.144 265.308 60.003 261.11 57.504 C 256.191 54.515 250.659 52.516 244.437 51.465 C 238.194 50.411 230.831 49.884 222.303 49.885 L 164.32 49.885 C 156.663 49.874 151.245 51.53 147.889 54.927 C 144.493 58.282 142.836 63.781 142.847 71.602 L 142.847 206.123 C 142.836 213.782 144.456 219.246 147.775 222.685 C 151.047 226.159 156.501 227.851 164.32 227.84 L 219.007 227.84 C 228.433 227.84 236.661 227.374 243.722 226.44 Z M 245.034 154.555 C 251.472 158.726 254.786 165.487 254.786 174.629 C 254.786 183.563 251.616 190.415 245.392 194.901 C 239.192 199.372 229.848 201.611 217.542 201.618 L 178.102 201.618 L 178.102 148.372 L 216.322 148.372 C 228.988 148.378 238.604 150.452 245.034 154.555 Z M 216.322 149.372 L 179.102 149.372 L 179.102 200.618 L 217.542 200.618 C 229.732 200.625 238.76 198.449 244.808 194.09 C 250.832 189.747 253.786 183.354 253.786 174.629 C 253.786 165.705 250.752 159.364 244.494 155.397 C 238.23 151.362 228.884 149.366 216.322 149.372 Z M 208.021 76.107 C 221.242 76.11 231.153 77.618 237.65 80.608 C 244.194 83.688 247.583 89.917 247.583 99.068 C 247.583 103.363 246.524 107.31 244.467 110.789 C 241.806 115.66 237.91 119.024 232.904 120.78 C 227.929 122.501 220.869 123.369 211.805 123.371 L 178.102 123.371 L 178.102 76.107 Z M 179.102 77.107 L 179.102 122.371 L 211.805 122.371 C 220.809 122.373 227.705 121.533 232.576 119.836 C 237.418 118.174 241.045 115.035 243.592 110.304 C 245.6 106.949 246.583 103.235 246.583 99.068 C 246.583 90.153 243.544 84.378 237.23 81.516 C 230.869 78.566 221.168 77.104 208.021 77.107 Z" style="fill: none;"/>
  <path d="M 219.007 228.84 L 164.32 228.84 C 156.351 228.829 150.535 226.981 147.051 223.375 C 143.616 219.734 141.858 213.926 141.847 206.123 L 141.847 71.602 C 141.858 63.635 143.661 57.782 147.181 54.219 C 150.743 50.698 156.515 48.896 164.32 48.885 L 222.303 48.885 C 230.867 48.886 238.314 49.417 244.603 50.479 C 250.913 51.544 256.614 53.613 261.622 56.646 C 265.888 59.193 269.694 62.442 272.978 66.336 C 276.259 70.236 278.785 74.585 280.512 79.303 C 282.164 83.892 291.415 93.179 291.415 98.564 C 291.415 107.651 286.978 114.538 280.367 120.073 C 273.768 125.598 265.671 129.542 257.111 133.532 C 268.33 137.293 276.667 142.493 282.599 149.84 C 288.534 157.193 291.529 166.414 291.529 177.315 C 291.529 187.392 288.917 196.54 283.759 204.622 C 278.585 212.694 271.549 218.711 262.779 222.575 C 257.293 224.866 250.963 226.492 243.854 227.432 C 236.755 228.37 228.461 228.84 219.007 228.84 Z M 243.722 226.44 C 250.773 225.508 256.972 223.921 262.389 221.654 C 271.033 217.868 277.839 212.044 282.917 204.084 C 288.015 196.134 290.529 187.256 290.529 177.315 C 290.529 166.569 287.644 157.682 281.82 150.468 C 275.992 143.248 267.302 137.807 255.598 134.089 L 254.373 133.7 L 255.54 133.159 C 264.487 129.011 273.218 124.754 279.726 119.306 C 286.222 113.867 290.415 107.38 290.415 98.564 C 290.415 93.531 281.34 84.416 279.572 79.647 C 277.883 75.007 275.445 70.81 272.214 66.98 C 268.988 63.144 265.308 60.003 261.11 57.504 C 256.191 54.515 250.659 52.516 244.437 51.465 C 238.194 50.411 230.831 49.884 222.303 49.885 L 164.32 49.885 C 156.663 49.874 151.245 51.53 147.889 54.927 C 144.493 58.282 142.836 63.781 142.847 71.602 L 142.847 206.123 C 142.836 213.782 144.456 219.246 147.775 222.685 C 151.047 226.159 156.501 227.851 164.32 227.84 L 219.007 227.84 C 228.433 227.84 236.661 227.374 243.722 226.44 Z M 245.034 154.555 C 251.472 158.726 254.786 165.487 254.786 174.629 C 254.786 183.563 251.616 190.415 245.392 194.901 C 239.192 199.372 229.848 201.611 217.542 201.618 L 178.102 201.618 L 178.102 148.372 L 216.322 148.372 C 228.988 148.378 238.604 150.452 245.034 154.555 Z M 216.322 149.372 L 179.102 149.372 L 179.102 200.618 L 217.542 200.618 C 229.732 200.625 238.76 198.449 244.808 194.09 C 250.832 189.747 253.786 183.354 253.786 174.629 C 253.786 165.705 250.752 159.364 244.494 155.397 C 238.23 151.362 228.884 149.366 216.322 149.372 Z M 208.021 76.107 C 221.242 76.11 231.153 77.618 237.65 80.608 C 244.194 83.688 247.583 89.917 247.583 99.068 C 247.583 103.363 246.524 107.31 244.467 110.789 C 241.806 115.66 237.91 119.024 232.904 120.78 C 227.929 122.501 220.869 123.369 211.805 123.371 L 178.102 123.371 L 178.102 76.107 Z M 179.102 77.107 L 179.102 122.371 L 211.805 122.371 C 220.809 122.373 227.705 121.533 232.576 119.836 C 237.418 118.174 241.045 115.035 243.592 110.304 C 245.6 106.949 246.583 103.235 246.583 99.068 C 246.583 90.153 243.544 84.378 237.23 81.516 C 230.869 78.566 221.168 77.104 208.021 77.107 Z" style="fill: none;"/>
  <path d="M 219.007 228.84 L 164.32 228.84 C 156.351 228.829 150.535 226.981 147.051 223.375 C 143.616 219.734 141.858 213.926 141.847 206.123 L 141.847 71.602 C 141.858 63.635 143.661 57.782 147.181 54.219 C 150.743 50.698 156.515 48.896 164.32 48.885 L 222.303 48.885 C 230.867 48.886 238.314 49.417 244.603 50.479 C 250.913 51.544 256.614 53.613 261.622 56.646 C 265.888 59.193 269.694 62.442 272.978 66.336 C 276.259 70.236 278.785 74.585 280.512 79.303 C 282.164 83.892 291.415 93.179 291.415 98.564 C 291.415 107.651 286.978 114.538 280.367 120.073 C 273.768 125.598 265.671 129.542 257.111 133.532 C 268.33 137.293 276.667 142.493 282.599 149.84 C 288.534 157.193 291.529 166.414 291.529 177.315 C 291.529 187.392 288.917 196.54 283.759 204.622 C 278.585 212.694 271.549 218.711 262.779 222.575 C 257.293 224.866 250.963 226.492 243.854 227.432 C 236.755 228.37 228.461 228.84 219.007 228.84 Z M 243.722 226.44 C 250.773 225.508 256.972 223.921 262.389 221.654 C 271.033 217.868 277.839 212.044 282.917 204.084 C 288.015 196.134 290.529 187.256 290.529 177.315 C 290.529 166.569 287.644 157.682 281.82 150.468 C 275.992 143.248 267.302 137.807 255.598 134.089 L 254.373 133.7 L 255.54 133.159 C 264.487 129.011 273.218 124.754 279.726 119.306 C 286.222 113.867 290.415 107.38 290.415 98.564 C 290.415 93.531 281.34 84.416 279.572 79.647 C 277.883 75.007 275.445 70.81 272.214 66.98 C 268.988 63.144 265.308 60.003 261.11 57.504 C 256.191 54.515 250.659 52.516 244.437 51.465 C 238.194 50.411 230.831 49.884 222.303 49.885 L 164.32 49.885 C 156.663 49.874 151.245 51.53 147.889 54.927 C 144.493 58.282 142.836 63.781 142.847 71.602 L 142.847 206.123 C 142.836 213.782 144.456 219.246 147.775 222.685 C 151.047 226.159 156.501 227.851 164.32 227.84 L 219.007 227.84 C 228.433 227.84 236.661 227.374 243.722 226.44 Z M 245.034 154.555 C 251.472 158.726 254.786 165.487 254.786 174.629 C 254.786 183.563 251.616 190.415 245.392 194.901 C 239.192 199.372 229.848 201.611 217.542 201.618 L 178.102 201.618 L 178.102 148.372 L 216.322 148.372 C 228.988 148.378 238.604 150.452 245.034 154.555 Z M 216.322 149.372 L 179.102 149.372 L 179.102 200.618 L 217.542 200.618 C 229.732 200.625 238.76 198.449 244.808 194.09 C 250.832 189.747 253.786 183.354 253.786 174.629 C 253.786 165.705 250.752 159.364 244.494 155.397 C 238.23 151.362 228.884 149.366 216.322 149.372 Z M 208.021 76.107 C 221.242 76.11 231.153 77.618 237.65 80.608 C 244.194 83.688 247.583 89.917 247.583 99.068 C 247.583 103.363 246.524 107.31 244.467 110.789 C 241.806 115.66 237.91 119.024 232.904 120.78 C 227.929 122.501 220.869 123.369 211.805 123.371 L 178.102 123.371 L 178.102 76.107 Z M 179.102 77.107 L 179.102 122.371 L 211.805 122.371 C 220.809 122.373 227.705 121.533 232.576 119.836 C 237.418 118.174 241.045 115.035 243.592 110.304 C 245.6 106.949 246.583 103.235 246.583 99.068 C 246.583 90.153 243.544 84.378 237.23 81.516 C 230.869 78.566 221.168 77.104 208.021 77.107 Z" style="fill: none;"/>
</svg>
